src/lib/packages/icons/src/assets/filled/location-pin-question.svg

<svg width="24" height="24" viewBox="0 0 24 24" fill="none" xmlns="http://www.w3.org/2000/svg">
<path d="M12 2.5C7.313 2.5 3.5 6.313 3.5 11C3.5 15.983 8.12902 19.041 11.192 21.064L11.722 21.416C11.806 21.472 11.903 21.5 11.999 21.5C12.095 21.5 12.192 21.472 12.276 21.416L12.806 21.064C15.869 19.041 20.498 15.983 20.498 11C20.5 6.313 16.687 2.5 12 2.5ZM12.02 15C11.468 15 11.015 14.552 11.015 14C11.015 13.448 11.457 13 12.01 13H12.02C12.572 13 13.02 13.448 13.02 14C13.02 14.552 12.572 15 12.02 15ZM13.344 11.051C12.788 11.421 12.713 11.608 12.71 11.616C12.596 11.918 12.304 12.1121 11.997 12.1121C11.915 12.1121 11.832 12.0981 11.752 12.0701C11.367 11.9321 11.159 11.523 11.29 11.136C11.492 10.537 12.085 10.088 12.514 9.80298C13.151 9.37998 13.158 8.95102 13.107 8.66602C13.029 8.22402 12.652 7.84702 12.211 7.77002C11.868 7.71002 11.537 7.79692 11.278 8.01392C11.022 8.22892 10.876 8.54298 10.876 8.87598C10.876 9.28998 10.54 9.62598 10.126 9.62598C9.71198 9.62598 9.37598 9.28998 9.37598 8.87598C9.37598 8.09898 9.71803 7.36499 10.314 6.86499C10.91 6.36499 11.696 6.15599 12.471 6.29199C13.53 6.47799 14.399 7.34701 14.585 8.40601C14.769 9.45801 14.329 10.397 13.344 11.051Z" fill="currentColor"/>
</svg>

<svg xmlns="http://www.w3.org/2000/svg" width="24" height="24" fill="none"><path fill="currentColor" d="M12 2.5c-4.687 0-8.5 3.813-8.5 8.5 0 4.983 4.629 8.041 7.692 10.064l.53.352a.5.5 0 0 0 .554 0l.53-.352c3.063-2.023 7.692-5.081 7.692-10.064C20.5 6.313 16.687 2.5 12 2.5Zm.02 12.5a1.005 1.005 0 0 1-1.005-1c0-.552.442-1 .995-1h.01a1 1 0 0 1 0 2Zm1.324-3.949c-.556.37-.631.557-.634.565a.77.77 0 0 1-.713.496.74.74 0 0 1-.707-.976c.202-.599.795-1.048 1.224-1.333.637-.423.644-.852.593-1.137a1.136 1.136 0 0 0-.896-.896 1.126 1.126 0 0 0-1.335 1.106.75.75 0 0 1-1.5 0c0-.777.342-1.511.938-2.011a2.637 2.637 0 0 1 2.157-.573 2.645 2.645 0 0 1 2.114 2.114c.184 1.052-.256 1.991-1.241 2.645Z"/></svg>
